usr/share/icons/biglinux-icons-material/scalable/mimetypes/text-x-sql.svg

<svg width="24" height="24" viewBox="0 0 24 24" fill="none" xmlns="http://www.w3.org/2000/svg">
<rect x="1" y="1" width="22" height="22" rx="6.6" fill="url(#paint0_radial_21_2425)"/>
<path d="M12.0007 9.71421C15.8663 9.71421 19.0001 8.43504 19.0001 6.85711C19.0001 5.27917 15.8663 4 12.0007 4C8.13503 4 5.0013 5.27917 5.0013 6.85711C5.0013 8.43504 8.13503 9.71421 12.0007 9.71421Z" stroke="#999999" stroke-width="1.14284" stroke-linejoin="round"/>
<path d="M5.00022 6.71521V17.1437" stroke="#999999" stroke-width="1.14284"/>
<path d="M18.999 10.2857C18.999 10.7872 18.6756 11.2799 18.0612 11.7143C17.4469 12.1486 16.5633 12.5093 15.4992 12.7601C14.4351 13.0108 13.2281 13.1429 11.9995 13.1429C10.7708 13.1429 9.56384 13.0108 8.4998 12.7601C7.43571 12.5093 6.55208 12.1486 5.93774 11.7143C5.32339 11.2799 4.99998 10.7872 5 10.2857" stroke="#999999" stroke-width="1.14284" stroke-linejoin="round"/>
<path d="M18.999 13.7142C18.999 14.2158 18.6756 14.7085 18.0612 15.1429C17.4469 15.5772 16.5633 15.9379 15.4992 16.1886C14.4351 16.4394 13.2281 16.5714 11.9995 16.5714C10.7708 16.5714 9.56384 16.4394 8.4998 16.1886C7.43571 15.9379 6.55208 15.5772 5.93774 15.1429C5.32339 14.7085 4.99998 14.2158 5 13.7142" stroke="#999999" stroke-width="1.14284" stroke-linejoin="round"/>
<path d="M18.999 17.1428C18.999 17.6444 18.6756 18.1371 18.0612 18.5714C17.4469 19.0058 16.5633 19.3665 15.4992 19.6172C14.4351 19.868 13.2281 20 11.9995 20C10.7708 20 9.56384 19.868 8.4998 19.6172C7.43571 19.3665 6.55208 19.0058 5.93774 18.5714C5.32339 18.1371 4.99998 17.6444 5 17.1428" stroke="#999999" stroke-width="1.14284" stroke-linejoin="round"/>
<path d="M18.999 6.71521V17.1437" stroke="#999999" stroke-width="1.14284"/>
<defs>
<radialGradient id="paint0_radial_21_2425" cx="0" cy="0" r="1" gradientUnits="userSpaceOnUse" gradientTransform="translate(17.5 1) rotate(116.565) scale(24.5967)">
<stop stop-color="#F4F4F4"/>
<stop offset="1" stop-color="#BBBBBB"/>
</radialGradient>
</defs>
</svg>

<svg xmlns="http://www.w3.org/2000/svg" width="24" height="24" fill="none"><rect width="22" height="22" x="1" y="1" fill="url(#a)" rx="6.6"/><path stroke="#999" stroke-linejoin="round" stroke-width="1.143" d="M12 9.714c3.866 0 7-1.279 7-2.857C19 5.28 15.866 4 12 4 8.136 4 5.002 5.28 5.002 6.857c0 1.578 3.134 2.857 7 2.857Z"/><path stroke="#999" stroke-width="1.143" d="M5 6.715v10.429"/><path stroke="#999" stroke-linejoin="round" stroke-width="1.143" d="M18.999 10.286c0 .501-.323.994-.938 1.428-.614.435-1.498.795-2.562 1.046-1.064.25-2.27.383-3.5.383-1.228 0-2.435-.132-3.5-.383-1.063-.25-1.947-.611-2.561-1.046C5.323 11.28 5 10.787 5 10.286M18.999 13.714c0 .502-.323.995-.938 1.429-.614.434-1.498.795-2.562 1.046a15.5 15.5 0 0 1-3.5.382c-1.228 0-2.435-.132-3.5-.382-1.063-.251-1.947-.612-2.561-1.046-.615-.434-.938-.927-.938-1.429M18.999 17.143c0 .501-.323.994-.938 1.428-.614.435-1.498.795-2.562 1.046A15.5 15.5 0 0 1 12 20c-1.228 0-2.435-.132-3.5-.383-1.063-.25-1.947-.611-2.561-1.046-.615-.434-.938-.927-.938-1.428"/><path stroke="#999" stroke-width="1.143" d="M18.999 6.715v10.429"/><defs><radialGradient id="a" cx="0" cy="0" r="1" gradientTransform="rotate(116.565 8.441 5.908) scale(24.5967)" gradientUnits="userSpaceOnUse"><stop stop-color="#F4F4F4"/><stop offset="1" stop-color="#BBB"/></radialGradient></defs></svg>
